**kern	**kern
*staff2	*staff1
*clefF4	*clefG2
*k[b-e-a-]	*k[b-e-a-]
*M2/4	*M2/4
*E-:	*E-:
=-	=-
8r	4B- 4d 4f
8BB-	.
8DL	8B-L 8f
8BB-J	8B-J 8f 8a-
=10	=10
8r	(4B- 4f 4a-
8E-	.
8GL	8e-L) 8g
8E-J	8b-J
=11	=11
8r	8b-L
8BBB- 8BB-	8B-J 8f
8DDL 8D	8B-L 8f
8BBB-J 8BB-	8B-J 8f 8a-
=12	=12
8r	(4B- 4f 4a-
8EE- 8E-	.
8GGL 8G	8e-L) 8g
8EE-J 8E-	8b-J
=13	=13
*^	*^
8B-L	2BB- 2F	(8ee-	2f 2a-
8B-J	.	4dd	.
8B-L	.	.	.
8B-J	.	16ccLL	.
.	.	16b-JJ)	.
=14	=14	=14	=14
8B-L	2BB- 2F	(8ee-	2f 2a-
8B-J	.	4dd	.
8B-L	.	.	.
8B-J	.	16ccLL	.
.	.	16b-JJ)	.
*v	*v	*	*
=15	=15	=15
4E- 4B-	(8ee-L	4g
.	8b-J)	.
4AA- 4A-	(16ddLL	8a-L
.	16cc	.
.	16b-	16gL
.	16a-JJ)	16fJJ
*	*v	*v
=16	=16
4BB- 4B-	(4e- 4g
4BB- 4A- 4B-	4d) 4f
=17	=17
*	*^
[4E- 4A- [4B-	(8fL	(4d
.	8f#J	.
8E-] 8G 8B-]	8gL)	8e-)
8r	8b-J	8r
*	*v	*v
=	=
*-	*-
